X: 29753
T: O Cabalo Azul
R: jig
M: 6/8
K: Dminor
A,|:D2E F2G|ABA d3|ABA GFE|FED D2 A,|
D2E F2G|ABA d^cd|ABA GFE|1 D3 D2 A,:|2 D3 A2G||
|:^F2A AGA|B2G GFG|EFG GFG|A2F FEF|
DEF FEF|G2E EDE|CDE F2E|1 D3 A2G:|2 D2d d^cd||
|:e2B A2^G|A2D d^cd|fed AB^G|A2D ABA|
GAG FGF|E2D ABA|GAG F2E|1 D2d d^cd:|2 D3 DEF||
|:GAG GEF|GAG GEF|G2B A2^G|AGF FEF|
GAG GEF|GAG GEF|G2B AEF|1 D3 DEF:|2 D3 D2||

